svg/furkot/mapbox-maki/tap.svg

<svg viewBox="0 0 512 512" xmlns="http://www.w3.org/2000/svg"><path d="m117.746 512h354.357v-118.12h-295.298c-10.87 0-19.686-8.815-19.686-19.685v-98.434h-118.119v157.493c0 43.491 35.255 78.746 78.746 78.746zm35.436-430.742-55.123 115.757-54.728-115.363c-2.225-7.308-3.677-14.832-4.331-22.443-.083-32.616 26.292-59.126 58.91-59.209 32.616-.082 59.127 26.289 59.209 58.911.02 7.661-1.453 15.249-4.331 22.347z" transform="matrix(-1 0 0 -1 511.102791 511.999802)"/></svg>

<svg viewBox="0 0 512 512" xmlns="http://www.w3.org/2000/svg"><path d="M 117.746 512 L 472.103 512 L 472.103 393.88 L 176.805 393.88 C 165.935 393.88 157.119 385.065 157.119 374.195 L 157.119 275.761 L 39 275.761 L 39 433.254 C 39 476.745 74.255 512 117.746 512 Z M 153.182 81.258 L 153.182 81.258 L 153.182 81.258 L 153.182 81.258 L 98.059 197.015 L 43.331 81.652 C 41.106 74.344 39.654 66.82 39 59.209 C 38.917 26.593 65.292 0.083 97.91 0 C 130.526 -0.082 157.037 26.289 157.119 58.911 C 157.139 66.572 155.666 74.16 152.788 81.258 L 153.182 81.258 Z" transform="matrix(-1, 0, 0, -1, 511.102791, 511.999802)"/></svg>
